icons/lines/eos--eos-.svg

<svg xmlns="http://www.w3.org/2000/svg" width="24" height="24" viewBox="0 0 24 24" fill="none" stroke="currentColor" stroke-width="2" stroke-linecap="round" stroke-linejoin="round" >
  <path d="M10.7998 3.39999L7.19982 7.69999C7.09982 7.89999 6.99982 8.19999 6.89982 8.39999L5.19982 17C5.09982 17.6 5.39982 18.3 5.89982 18.6L11.1998 21.6C11.5998 21.8 12.2998 21.8 12.6998 21.6L17.9998 18.6C18.4998 18.3 18.7998 17.6 18.6998 17L16.9998 8.39999C16.9998 8.19999 16.7998 7.89999 16.6998 7.69999L13.0998 3.39999C12.4998 2.59999 11.4998 2.59999 10.7998 3.39999Z" stroke-miterlimit="10"/>
  <path d="M16.8002 8.5L12.5002 20.7C12.3002 21.1 11.7002 21.1 11.6002 20.7L7.2002 8.5" stroke-miterlimit="10"/>
  </svg>

<svg xmlns="http://www.w3.org/2000/svg" width="24" height="24" viewBox="0 0 24 24" fill="none" stroke="currentColor" stroke-width="2" stroke-linecap="round" stroke-linejoin="round">
  <path d="m16.8 8.5-4.3 12.2c-.2.4-.8.4-.9 0L7.2 8.5" />
  <path d="M7.2 7.7c-.1.2-.2.5-.3.7L5.2 17c-.1.6.2 1.3.7 1.6l5.3 3c.4.2 1.1.2 1.5 0l5.3-3c.5-.3.8-1 .7-1.6L17 8.4c0-.2-.2-.5-.3-.7l-3.6-4.3c-.6-.8-1.6-.8-2.3 0z" />
</svg>
